spain-cool.svg

<svg height="62" viewBox="0 0 72 62" width="72" xmlns="http://www.w3.org/2000/svg"><path d="m72 54.028c0 4.418-3.582 8-8 8h-56c-4.418 0-8-3.582-8-8v-36c0-4.418 3.582-8 8-8h56c4.418 0 8 3.582 8 8z" fill="#c60a1d"/><path d="m0 24.028h72v24h-72z" fill="#ffc400"/><path d="m18 34.028v6c0 3.314 2.686 6 6 6s6-2.686 6-6v-6z" fill="#ea596e"/><path d="m24 32.028h6v6h-6z" fill="#f4a2b2"/><path d="m18 32.028h6v6h-6z" fill="#dd2e44"/><path d="m30 29.028c0 1.657-2.686 3-6 3s-6-1.343-6-3 2.686-3 6-3 6 1.343 6 3z" fill="#ea596e"/><path d="m30 27.528c0 .828-2.686 1.5-6 1.5s-6-.672-6-1.5c0-.829 2.686-1.5 6-1.5s6 .671 6 1.5z" fill="#ffac33"/><path d="m14 32.028h2v14h-2zm18 0h2v14h-2z" fill="#99aab5"/><path d="m12 44.028h6v2h-6zm18 0h6v2h-6zm-16-14h2v2h-2zm18 0h2v2h-2z" fill="#66757f"/><path d="m72 20.054c0-2.176-.387-4.263-1.098-6.194-.485 5.689-3.518 8.611-6.687 7.25-2.969-1.275-.968-6.246-.82-8.618.249-4.021-.013-8.623-7.317-12.45 3.035 5.806.352 9.413-2.463 9.633-3.122.243-5.982-2.684-4.926-7.434-3.418 2.519-3.518 6.758-2.463 9.5 1.1 2.859-.044 5.234-2.727 5.498-2.998.296-4.663-3.21-3.127-8.796-2.659 3.13-4.263 7.183-4.263 11.611 0 9.912 8.034 17.946 17.945 17.946 9.912 0 17.946-8.034 17.946-17.946z" fill="#f4900c"/><path d="m65.027 25.332c.156 3.255-2.704 4.531-4.243 3.915-2.223-.89-1.627-2.419-2.199-5.585-.572-3.167-2.771-5.366-6.025-6.334 2.375 6.685-1.317 9.149-3.252 9.589-1.976.45-3.961-.001-4.188-4.23-2.306 2.295-3.733 5.47-3.733 8.979 0 .389.024.771.058 1.151 3.241 3.203 7.692 5.183 12.609 5.183 4.918 0 9.369-1.98 12.61-5.183.034-.38.058-.762.058-1.151 0-2.308-.617-4.471-1.695-6.334z" fill="#ffcc4d"/></svg>

<svg xmlns="http://www.w3.org/2000/svg" width="72" height="62" viewBox="0 0 72 62"><path fill="#c60a1d" d="M72 54.028 C72 58.446 68.418 62.028 64 62.028 L8 62.028 C3.582 62.028 0 58.446 0 54.028 L0 18.028 C0 13.61 3.582 10.028 8 10.028 L64 10.028 C68.418 10.028 72 13.61 72 18.028 Z"/><path fill="#ffc400" d="M0 24.028 L72 24.028 72 48.028 0 48.028 Z"/><path fill="#ea596e" d="M18 34.028 L18 40.028 C18 43.342 20.686 46.028 24 46.028 27.314 46.028 30 43.342 30 40.028 L30 34.028 Z"/><path fill="#f4a2b2" d="M24 32.028 L30 32.028 30 38.028 24 38.028 Z"/><path fill="#dd2e44" d="M18 32.028 L24 32.028 24 38.028 18 38.028 Z"/><path fill="#ea596e" d="M30 29.028 C30 30.685 27.314 32.028 24 32.028 20.686 32.028 18 30.685 18 29.028 18 27.371 20.686 26.028 24 26.028 27.314 26.028 30 27.371 30 29.028 Z"/><path fill="#ffac33" d="M30 27.528 C30 28.356 27.314 29.028 24 29.028 20.686 29.028 18 28.356 18 27.528 18 26.699 20.686 26.028 24 26.028 27.314 26.028 30 26.699 30 27.528 Z"/><path fill="#99aab5" d="M14 32.028 L16 32.028 16 46.028 14 46.028 Z M32 32.028 L34 32.028 34 46.028 32 46.028 Z"/><path fill="#66757f" d="M12 44.028 L18 44.028 18 46.028 12 46.028 Z M30 44.028 L36 44.028 36 46.028 30 46.028 Z M14 30.028 L16 30.028 16 32.028 14 32.028 Z M32 30.028 L34 30.028 34 32.028 32 32.028 Z"/><g><path fill="#f4900c" d="M72 20.054 C72 17.878 71.613 15.791 70.902 13.86 70.417 19.549 67.384 22.471 64.215 21.11 61.246 19.835 63.247 14.864 63.395 12.492 63.644 8.471 63.382 3.869 56.078 0.042 59.113 5.848 56.43 9.455 53.615 9.675 50.493 9.918 47.633 6.991 48.689 2.241 45.271 4.76 45.171 8.999 46.226 11.741 47.326 14.6 46.182 16.975 43.499 17.239 40.501 17.535 38.836 14.029 40.372 8.443 37.713 11.573 36.109 15.626 36.109 20.054 36.109 29.966 44.143 38 54.054 38 63.966 38 72 29.966 72 20.054 Z"/><path fill="#ffcc4d" d="M65.027 25.332 C65.183 28.587 62.323 29.863 60.784 29.247 58.561 28.357 59.157 26.828 58.585 23.662 58.013 20.495 55.814 18.296 52.56 17.328 54.935 24.013 51.243 26.477 49.308 26.917 47.332 27.367 45.347 26.916 45.12 22.687 42.814 24.982 41.387 28.157 41.387 31.666 41.387 32.055 41.411 32.437 41.445 32.817 44.686 36.02 49.137 38 54.054 38 58.972 38 63.423 36.02 66.664 32.817 66.698 32.437 66.722 32.055 66.722 31.666 66.722 29.358 66.105 27.195 65.027 25.332 Z"/></g></svg>
